!!!!SEGMENT: pl-kk--kk-i-297--002_anonim--alleluia-ave-maria.krn
!!!cenid: 16xx:1964
!!!COM: Anonim
!!!COM-rismID: pe30004985
!!!CDT:
!!!CNT:
!!!OTL: Alleluia ave Maria
!!!PDT:
!!!AGN: Sacred
!!!YEC: Copyright 2022 Narodowy Instytut Fryderyka Chopina (https://polishscores.org)
!!!YEM: License CC-BY-4.0 (https://creativecommons.org/licenses/by/4.0)
!!!SMS-siglum: PL-Kk
!!!SMS-shelfmark: Kk.I.297
!!!SMS-variant:
!!!SMS-altvar:
!!!SMS-shelfwork: 002 W
!!!NIFC-rismSourceID: 1001147739
!!!NIFC-rismChildID: 1001147743
!!!NIFC-islandoraID: pl-kk:5092
!!!URL-pdf-islandora: https://repozytorium.nifc.pl/islandora/object/pl-kk:5092/datastream/PDF/view
!!!URL-scan: https://polish.musicsources.pl/pl/lokalizacje/galeria/rekopisy/5915/2 @EN{Scan on Polish Music Sources Website} @PL{Skany w portalu Dziedzictwo Muzyki Polskiej w otwartym dostępie}
!!!IIIF:
!!!ONB-nifc: UWAGA: utwory w źródle: 1. Tollite portas, 2, Alleluia ave Maria
!!!OMD:
!!!AIN: 1 alto 1 bass 1 canto 1 tenor
!!!key: C
**kern	**text	**kern	**text	**kern	**text	**kern	**text
*part4	*part4	*part3	*part3	*part2	*part2	*part1	*part1
*staff4	*staff4	*staff3	*staff3	*staff2	*staff2	*staff1	*staff1
*I"Baſso.	*	*I"Tenore	*	*I"Alto.	*	*I"Canto.	*
*I'B	*	*I'T	*	*I'A	*	*I'C	*
*Ibass	*	*Itenor	*	*Ialto	*	*Icanto	*
*ICvox	*	*ICvox	*	*ICvox	*	*ICvox	*
*clefF4	*	*clefC4	*	*clefC3	*	*clefC1	*
*k[]	*	*k[]	*	*k[]	*	*k[]	*
*C:	*	*C:	*	*C:	*	*C:	*
*M3/2	*	*M3/2	*	*M3/2	*	*M3/2	*
=1	=1	=1	=1	=1	=1	=1	=1
2r	.	0.r	.	00.r	.	1.r	.
*2\right	*	*	*	*	*	*	*
2c\	Al-	.	.	.	.	.	.
2c\	-le-	.	.	.	.	.	.
=2	=2	=2	=2	=2	=2	=2	=2
2G\	-lu-	.	.	.	.	2r	.
*	*	*	*	*	*	*2\right	*
2A,<\	-ia	.	.	.	.	2cc\	Al-
*	*ij	*	*	*	*	*	*
2A\	al-	.	.	.	.	2cc\	-le-
=3	=3	=3	=3	=3	=3	=3	=3
2E\	-le-	2r	.	.	.	2g\	-lu-
*	*	*2\right	*	*	*	*	*
1F	-lu-	2c\	Al-	.	.	2a,<\	-ia
*	*	*	*	*	*	*	*ij
.	.	2c\	-le-	.	.	2a\	al-
=4	=4	=4	=4	=4	=4	=4	=4
2C,</	-ia	2c\	-lu-	.	.	2e/	-le-
*	*Xij	*	*	*	*	*	*
1G	al-	2B,<\	-ia	.	.	1d	-lu-
*	*	*	*ij	*	*	*	*
.	.	2B\	Al-	.	.	.	.
=5	=5	=5	=5	=5	=5	=5	=5
(2D\	-le-	2F#X/	-le-	2r	.	2d/	-ia
*	*	*	*	*2\right	*	*	*Xij
2E\)	.	1G	-lu-	2g\	Al-	2r	.
2E\	-lu-	.	.	2g\	-le-	2r	.
=6	=6	=6	=6	=6	=6	=6	=6
2BB,</	-ia	1.G,<	-ia	2d\	-lu-	2r	.
*	*	*	*Xij	*	*	*	*
1C	al-	.	.	2e,<\	-ia	1g	al-
*	*	*	*	*	*ij	*	*
.	.	.	.	2e\	Al-	.	.
=7	=7	=7	=7	=7	=7	=7	=7
2G\	.	2r	.	1B	-le-	2d/	-le-
[<1G	.	1G	al-	.	.	2e/	-lu-
.	.	.	.	2B/	-lu-	2e,</	-ia
*custos:G	*	*	*	*	*	*	*
!LO:LB:g=original	!	!	!	!	!	!	!
=8	=8	=8	=8	=8	=8	=8	=8
2G\]	.	1A	-le-	2e,<\	-ia	2c/	al-
*	*	*	*	*	*Xij	*	*
[<1Fn	.	.	.	2d\	al-	2f/	-le-
.	.	2A\	-lu-	2d\	-le-	2f/	-lu-
!	!	!	!	!	!	!LO:LB:g=original	!
=9	=9	=9	=9	=9	=9	=9	=9
2F\]	.	2B,<\	-ia	2d\	-lu-	1g,<	-ia
1E	.	1c	al-	[<1e	-ia	.	.
.	.	.	.	.	.	2g\	al-
!	!	!LO:LB:g=original	!	!	!	!	!
=10	=10	=10	=10	=10	=10	=10	=10
2F\	-le-	1c	-le-	2e\]	.	(2a\	-le-
2G\	-lu-	.	.	1d	.	2g\)	.
2GG/	.	2B\	-lu-	.	.	2g\	-lu-
*	*	*	*	*custos:e	*	*	*
!	!	!	!	!LO:LB:g=original	!	!	!
=11	=11	=11	=11	=11	=11	=11	=11
2C,</	-ia	2c\	-ia	2e,<\	.	2g,<\	-ia
*	*	*	*	*	*	*	*ij
2C/	al-	2G,</	.	2e\	al-	2cc\	al-
2D\	.	2d\	al-	2fn\	.	2b\	-le-
=12	=12	=12	=12	=12	=12	=12	=12
1E	-le-	1G	-le-	1g	-le-	2cc\	-lu-
.	.	.	.	.	.	2cc,<\	-ia
*	*	*	*	*	*	*	*Xij
[<2F\	.	2A/	.	[<2fn\	.	2cc\	al-
=13	=13	=13	=13	=13	=13	=13	=13
2F\]	.	2A/	.	2f\]	.	1cc	-le-
2G\	-lu-	1G	-lu-	1d	-lu-	.	.
2GG/	.	.	.	.	.	2b\	-lu-
=14	=14	=14	=14	=14-	=14	=14	=14
0.C;	-ia	0.G;	-ia.	0.e;	-ia	0.cc;	-ia
=15-	=15	=15-	=15	=15-	=15	=15-	=15
.	.	.	.	.	.	.	.
!LO:LB:g=original	!	!	!	!	!	!	!
=16||	=16||	=16||	=16||	=16||	=16||	=16||	=16||
*M2/2	*	*M2/2	*	*M2/2	*	*M2/2	*
*met(c|)	*	*met(c|)	*	*met(c|)	*	*met(c|)	*
!	!	!LO:TX:b:t=Ave.	!	!	!	!	!
00r	.	00r	.	2g\	A-	0r	.
.	.	.	.	4e\	-ve	.	.
.	.	.	.	4c\	Ma-	.	.
=17	=17	=17	=17	=17	=17	=17	=17
.	.	.	.	(4d\	-ri-	.	.
.	.	.	.	4e\)	.	.	.
.	.	.	.	(4f\	-a	.	.
.	.	.	.	4d\)	.	.	.
=18	=18	=18	=18	=18	=18	=18	=18
.	.	.	.	4e\	gra-	1r	.
.	.	.	.	4f#X\	-ti-	.	.
.	.	.	.	4g\	-a	.	.
.	.	.	.	4e\	.	.	.
=19	=19	=19	=19	=19	=19	=19	=19
.	.	.	.	2f#X,<\	.	2dd\	A-
.	.	.	.	[<2g\	gra-	4b\	-ve
.	.	.	.	.	.	4g/	Ma-
*	*	*	*	*	*	*custos:a	*
!	!	!	!	!	!	!LO:LB:g=original	!
=20	=20	=20	=20	=20	=20	=20	=20
0r	.	00r	.	2g\]	.	4a\	.
.	.	.	.	.	.	4b\	-ri-
.	.	.	.	4f#X\	-ti-	4cc\	-a
.	.	.	.	4f#\	-a	4a\	.
!	!	!	!	!LO:LB:g=original	!	!	!
=21	=21	=21	=21	=21	=21	=21	=21
.	.	.	.	2g\	ple-	4b\	gra-
.	.	.	.	.	.	4cc\	.
.	.	.	.	2g\	-na	4dd\	.
.	.	.	.	.	.	4cc\	-ti-
=22	=22	=22	=22	=22	=22	=22	=22
2G\	Do-	.	.	2d\	Do-	2b,<\	-a
4E\	-mi-	.	.	2e\	.	[<2cc\	ple-
4C/	-n(us)	.	.	.	.	.	.
=23	=23	=23	=23	=23	=23	=23	=23
4D\	Te-	.	.	4f\	.	2cc\]	.
4E\	.	.	.	4c\	.	.	.
4F\	.	.	.	[<2f\	.	2b\	-na
4D\	.	.	.	.	.	.	.
=24	=24	=24	=24	=24	=24	=24	=24
4E\	.	1r	.	2f\]	.	2cc,<\	.
4F\	.	.	.	.	.	.	.
4G\	.	.	.	4e\	-mi-	[<2cc\	Do-
4E\	.	.	.	4e\	-n(us)	.	.
=25	=25	=25	=25	=25	=25	=25	=25
2F#X\	.	2d\	Do-	1d	Te-	4cc\]	.
.	.	.	.	.	.	4cc\	-mi-
1G	.	4B\	-mi-	.	.	2b\	-nus
.	.	4G/	-nus	.	.	.	.
=26-	=26	=26	=26	=26	=26	=26	=26
.	.	4A\	Te-	2c,<\	-cum	1a	Te-
.	.	4B\	.	.	.	.	.
2F#X\	.	4c\	.	[<2a\	Do-	.	.
.	.	4A\	.	.	.	.	.
*	*	*custos:B	*	*	*	*	*
!	!	!LO:LB:g=original	!	!	!	!	!
=27	=27	=27	=27	=27	=27	=27	=27
2G,<\	-cum	4B\	.	4a\]	.	2d/	-cum
.	.	4c\	.	4a\	-mi-	.	.
2G\	Te-	4d\	.	1g	-nus	2r	.
.	.	4B\	.	.	.	.	.
=28	=28	=28	=28	=28-	=28	=28	=28
2A\	.	2c#X\	.	.	.	2a\	be-
2D\	.	1d	.	2f#X\	Te-	4f#X/	-ne-
.	.	.	.	.	.	4d/	-di-
=29	=29	=29-	=29	=29	=29	=29	=29
2A\	.	.	.	2e\	-cum	(4e/	-cta
.	.	.	.	.	.	4f#X/)	.
2AA/	.	2c#X\	.	2r	.	(4g/	Tu
.	.	.	.	.	.	4e/)	.
!	!	!	!	!	!	!LO:LB:g=original	!
=30	=30	=30	=30	=30	=30	=30	=30
2D\	-cum.	2d\	-cum.	1r	.	(4f#X/	in
.	.	.	.	.	.	4g/)	.
2r	.	2r	.	.	.	4a/	Mu-
.	.	.	.	.	.	4g/	-li-
!LO:LB:g=original	!	!	!	!	!	!	!
=31	=31	=31	=31	=31	=31	=31	=31
00r	.	0r	.	2d\	be-	2f#X/	-e-
.	.	.	.	4B/	-ne-	[2g/	.
.	.	.	.	4G/	-di-	.	.
!	!	!	!	!LO:LB:g=original	!	!	!
=32	=32	=32	=32	=32	=32	=32	=32
.	.	.	.	(4A/	-cta	2g/]	.
.	.	.	.	4B/)	.	.	.
.	.	.	.	(4c/	Tu	2f#X/	-ri-
.	.	.	.	4A/)	.	.	.
=33	=33	=33	=33	=33	=33	=33	=33
!	!	!	!	!LO:SIC:v:s=(4B/	!	!	!
.	.	1r	.	(4A/	in	2g,</	-bus,
.	.	.	.	4c/)	.	.	.
.	.	.	.	4d/	mu-	[2g/	et
.	.	.	.	4B/	-li-	.	.
=34	=34	=34	=34	=34	=34	=34	=34
.	.	2A/	et	2c#X\	-e-	2g/]	.
.	.	4F#X/	be-	1d	.	4f#X/	be-
.	.	4D/	-ne-	.	.	4f#/	-ne-
=35	=35	=35	=35	=35-	=35	=35	=35
0r	.	(4E/	-di-	.	.	(4g\	-di-
.	.	4F/)	.	.	.	4a\)	.
.	.	(4G/	-ctus	2c#X\	-ri-	(4b\	-ctus
.	.	4E/)	.	.	.	4g\)	.
=36	=36	=36	=36	=36	=36	=36	=36
.	.	(4F#X/	Fru-	2d,<\	-bus	4a\	Fru-
.	.	4G/)	.	.	.	4b\	.
.	.	4A/	-ct(us)	2e\	et	1cc	-ctus
.	.	4G/	.	.	.	.	.
=37	=37	=37	=37	=37	=37	=37-	=37
2D\	et	2F#X/	Ven-	2.d\	be-	.	.
4BB/	be-	1G	.	.	.	2b\	.
4GG/	-ne-	.	.	4d\	-ne-	.	.
=38	=38	=38-	=38	=38	=38	=38	=38
(4AA/	-di-	.	.	1cn	-di-	1a,<	.
4BB/)	.	.	.	.	.	.	.
(4C/	-ctus	2F#X,</	-tris	.	.	.	.
4AA/)	.	.	.	.	.	.	.
!	!	!LO:LB:g=original	!	!	!	!	!
=39	=39	=39	=39	=39	=39	=39-	=39
(4BB/	Fru-	2B\	Fru-	2d\	-ctus	2a\	Ven-
4C/)	.	.	.	.	.	.	.
4D/	-ctus	2B\	-ct(us)	2r	.	1g	.
4BB/	.	.	.	.	.	.	.
=40	=40	=40	=40	=40	=40	=40-	=40
2C#X/	Ven-	2E/	Ven-	2a\	et	.	.
1D	.	2A\	-tris	4f#X\	be-	2f#X/	-tris
.	.	.	.	4d\	-ne-	.	.
*	*	*	*	*custos:e	*	*	*
!	!	!	!	!LO:LB:g=original	!	!	!
=41-	=41	=41	=41	=41	=41	=41	=41
.	.	1G	Tu-	(4e\	-di-	1e	Tu-
!	!	!	!	!LO:SIC:v:s=4f#\)	!	!	!
.	.	.	.	4f\)	.	.	.
2C#X/	-tris	.	.	4g\	-ctus	.	.
.	.	.	.	4e\	.	.	.
!	!	!	!	!	!	!LO:LB:g=original	!
=42	=42	=42	=42	=42	=42	=42	=42
4D\	Fru-	2A\	-i.	(4f#X\	Fru-	2d,</	-i,
4E\	.	.	.	4g\)	.	.	.
4F#X\	-ctus	2r	.	(4a\	-ct(us)	2dd\	Fru-
4E\	.	.	.	4g\)	.	.	.
=43	=43	=43	=43	=43	=43	=43	=43
2D\	Ven-	2d\	et	2f#X\	Ven-	2dd,<\	-ctus
2G,<\	-tris	4B\	be-	1g	.	4dd\	Ven-
.	.	4G/	-ne-	.	.	4dd\	-tris
=44	=44	=44	=44	=44-	=44	=44	=44
1D	Tu-	(4A\	-di-	.	.	1dd	Tu-
.	.	4B\)	.	.	.	.	.
.	.	(4c\	-ctus	2f#X\	.	.	.
.	.	4A\)	.	.	.	.	.
!LO:LB:g=original	!	!	!	!	!	!	!
=45	=45	=45	=45	=45	=45	=45	=45
2GG,</	-i	(4B\	Fru-	2g\	.	2dd,<\	-i
.	.	4c\)	.	.	.	.	.
2D\	Ven-	(4d\	-ctus	2f#X,<\	-tris	(2a\	Ven-
.	.	4c\)	.	.	.	.	.
=46	=46	=46	=46	=46	=46	=46	=46
*	*	*	*	*	*ij	*	*
2G\	.	2B\	Ven-	2d\	ven-	2g\)	.
2C/	-tris	1c	-tris	2e,<\	-tris	2g\	-tris
*	*	*	*	*	*Xij	*	*
=47	=47	=47-	=47	=47	=47	=47	=47
2G\	Tu-	.	.	1d	Tu-	1g	Tu-
2GG/	.	2B\	Tu-	.	.	.	.
=48	=48	=48	=48	=48	=48	=48	=48
2C,</	-i	2c,<\	-i	2e,<\	-i	2g,<\	-i,
[<2F\	be-	[2F/	et	2c\	et	[<2a\	be-
*	*	*custos:F	*	*	*	*	*
!	!	!LO:LB:g=original	!	!	!	!	!
=49	=49	=49	=49	=49	=49	=49	=49
!LO:N:xstem	!	!	!	!	!	!LO:N:xstem	!
4F\]	.	2F/]	.	2.d\	be-	4a\]	.
4D\	-ne-	.	.	.	.	4f/	-ne-
[<2G\	-di-	1G	be-	.	.	[<2bn\	-di-
.	.	.	.	4B/	-ne-	.	.
=50	=50	=50-	=50	=50	=50	=50	=50
!LO:N:xstem	!	!	!	!	!	!LO:N:xstem	!
4G\]	.	.	.	2.e\	-di-	4b\]	.
4E,<\	-ctus	.	.	.	.	4g/	-ctus
[<2A\	Fru-	2A\	-ne-	.	.	2cc\	Fru-
.	.	.	.	4c/	-ctus	.	.
!	!	!	!	!LO:LB:g=original	!	!	!
=51	=51	=51	=51	=51	=51	=51	=51
2A\]	.	2d\	-di-	(2fn\	Fru-	1b,<	-ct(us)
[<2G\	.	2e,<\	-ctus	2g\)	.	.	.
=52	=52	=52	=52	=52	=52	=52	=52
2G\]	.	2c#X\	Fru-	2e,<\	-ctus	1a	Ven-
[<2F\	.	2d,<\	-ct(us)	2f\	Ven-	.	.
!	!	!	!	!	!	!LO:LB:g=original	!
=53	=53	=53	=53	=53	=53	=53	=53
2F\]	.	2B\	Ven-	2d\	.	2g\	.
2E,<\	-ctus	2c,<\	-tris	2e\	-tris	1cc	.
=54	=54	=54	=54	=54	=54	=54-	=54
*	*	*	*	*	*ij	*	*
1D	Ven-	1d	Tu-	1f	Ven-	.	.
.	.	.	.	.	.	2b\	-tris
!LO:LB:g=original	!	!	!	!	!	!	!
=55	=55	=55	=55	=55	=55	=55	=55
2C/	.	2G,</	-i	2e,<\	-tris	(2cc\	Fru-
*	*	*	*	*	*Xij	*	*
2F\	-tris	1c	Fru-	2f\	Fru-	2a\)	.
=56	=56	=56-	=56	=56	=56	=56	=56
1G	Ven-	.	.	2.d\	-ctus	(2g\	-ct(us)
.	.	2B\	-ct(us)	.	.	2b\)	.
.	.	.	.	4e\	.	.	.
=57	=57	=57	=57	=57	=57	=57	=57
1.A	.	1.d	Ven-	1.f#X	Ven-	1.cc	Ven-
=58-	=58	=58-	=58	=58-	=58	=58-	=58
.	.	.	.	.	.	.	.
2A\	-tris	2d\	-tris	2f#\	-tris	2cc,<\	-tris
=59	=59	=59	=59	=59	=59	=59	=59
*	*	*	*ij	*	*	*	*
[<1G	Ven-	(1d	Ven-	1d	Ven-	1b	Ven-
!	!	!	!	!LO:LB:g=original	!	!	!
=60	=60	=60-	=60	=60	=60	=60-	=60
2.G\]	.	2.c\)	.	2.e\	.	2.cc\	.
4G\	-tris	4c\	-tris	4e\	-tris	4cc,<\	-tris
*	*	*	*Xij	*	*	*	*
!	!	!LO:LB:g=original	!	!	!	!	!
=61	=61	=61	=61	=61	=61	=61	=61
(<1G	Tu-	[1G	Tu-	2d\	Tu-	2b\	Tu-
.	.	.	.	2e\	.	1cc	.
=62	=62	=62	=62	=62-	=62	=62-	=62
1GG)	.	1G]	.	1d	.	.	.
.	.	.	.	.	.	2b\	.
=63	=63	=63	=63	=63-	=63	=63	=63
!LO:TX:b:B:t=alleluja\nDa Capo	!	!LO:TX:b:B:t=Alleluja da Capo	!	!LO:TX:b:B:t=alleluja da Capo.	!	!LO:TX:b:B:t=alleluja\n Da Capo.	!
0C;	-i.	0G;	-i.	0e;	-i.	0cc;	-i.
=64-	=64	=64-	=64	=64-	=64	=64-	=64
.	.	.	.	.	.	.	.
==	==	==	==	==	==	==	==
*-	*-	*-	*-	*-	*-	*-	*-
!!!system-decoration: [(s1,s2,s3,s4)]
!!!RDF**kern: < = below
!!!ENC: Andrzej Gręziak
!!!END: 2024-04-17
!!!EED: Marta Chmielewska
!!!EEV: 2024-06-03
